X: 21673
T: Kilnamona
R: barndance
M: 4/4
K: Gmajor
|:ge|dGBD GABc|d2 cd A3 B|c2 A2 e3 d|e2 d2 BABc|
dGBd GABc|d2 cd A3 B|c2 A2 e2 d2|G4 G2:|
|:ga|b4 bagb|a4 agef|g2 ge d3 d|eaag a2 ga|
b4 bagb|a4 agef|gbeg d G2 d|eggf g2:|

